X:122
T: ICH BIN SO MANCHEN WEG GEGANGEN
N: E0715
O: Europa, Mitteleuropa, Deutschland, Hessen, Darmstadt, Dreieichenhain
R: Liebes - Lied, Leid, Klage
M: 3/4
L: 1/16
K: F
C2F2G2 | A6A2B3A | A2G2G2
F2E2G2 | B6c2B2G2 | G2A2A2
C2F2A2 | c6c2d2c2 | G6
F2E2G2 | c4d2c2B2E2 | F6

